packages/icons/src/svg/core/routes.svg

<svg xmlns="http://www.w3.org/2000/svg" viewBox="0 0 16 16">
<g>
  <path class="ti-foreground" d="M13,0.724264069 L13,2.001 L13,2.001 L9.2,2.001 L7.4,5.7 L5.6,2.001 L-1.26121336e-13,2.001 L-1.26121336e-13,4.001 L4.4,4.001 L6.3,8 L4.4,12.001 L-1.26121336e-13,12.001 L-1.26121336e-13,14 L5.6,14 L7.4,10.3 L9.2,14 L13,14 L13,15.2760772 C13,15.4417626 13.1343146,15.5760772 13.3,15.5760772 C13.3795303,15.5760772 13.4558062,15.5444976 13.5120613,15.4882799 L15.7887973,13.2130613 C15.9060643,13.0960138 15.9061276,12.9060643 15.7890094,12.788868 C15.7889858,12.7888444 15.7889622,12.7888208 15.788868,12.788868 L13.512132,10.512132 C13.3949747,10.3949747 13.2050253,10.3949747 13.087868,10.512132 C13.0316071,10.5683929 13,10.6446991 13,10.7242641 L13,12.001 L13,12.001 L10.401,12.001 L8.5,8 L10.401,4.001 L13,4.001 L13,5.27607722 C13,5.44176264 13.1343146,5.57607722 13.3,5.57607722 C13.3795303,5.57607722 13.4558062,5.54449761 13.5120613,5.48827995 L15.7887973,3.21306131 C15.9060643,3.09601381 15.9061276,2.90606432 15.7890094,2.78886799 C15.7889858,2.78884441 15.7889622,2.78882084 15.788868,2.78886797 L13.512132,0.512132034 C13.3949747,0.394974747 13.2050253,0.394974747 13.087868,0.512132034 C13.0316071,0.568392948 13,0.644699122 13,0.724264069 Z"/>
</g>
</svg>

<svg xmlns="http://www.w3.org/2000/svg" viewBox="0 0 16 16">
<g>
  <path class="ti-foreground" d="M13 .724v1.277H9.2L7.4 5.7 5.6 2.001H0v2h4.4L6.3 8l-1.9 4.001H0V14h5.6l1.8-3.7L9.2 14H13v1.276a.3.3 0 00.512.212l2.277-2.275a.3.3 0 000-.424l-2.277-2.277a.3.3 0 00-.512.212v1.277h-2.599L8.5 8l1.901-3.999H13v1.275a.3.3 0 00.512.212l2.277-2.275a.3.3 0 000-.424L13.512.512A.3.3 0 0013 .724z"/>
</g>
</svg>
